X:1
T:James Gibb editions
T:Ingrediente Domino - Schubert
%%score [ 1 2 3 4 ]
L:1/8
Q:1/4=90
M:4/4
K:C
V:1 treble nm="Soprano" snm="S"
V:2 treble nm="Alto" snm="A"
V:3 treble-8 nm="Tenor" snm="T"
V:4 bass nm="Bass" snm="B"
V:1
"^andante""^Ingrediente Domino, D696:6""^Franz Schubert\n(1797-1828)" E2 EE E2 E2 | F3 F F2 F2 | %2
w: In- gre- di- en- te|Do- mi- no in|
 E2 G2 A2 B2 | c4 c4 | E3 E E2 E2 | F3 F F4 | EEGG A2 B2 | c4 c2 c2 | d2 e2 (d3 c) | B6 d2 | %10
w: san- ctam ci- vi-|ta- tem|He- brae- o- rum|pu- e- ri|re- sur- re- cti- o- nem|vi- tae pro-|nun- ti- an\- *|tes cum|
 d2 dd c2 cc | B2 BB c2 c2 | d2 e2 f4 | !fermata!e8 |] %14
w: ra- mis pal- ma- rum. Ho-|san- na cla- ma- bant|in ex- cel-|sis.|
V:2
 C2 CC C2 C2 | D3 D D2 D2 | C2 E2 F2 F2 | E4 E4 | C3 C C2 C2 | D3 D D4 | CCEE F2 F2 | E4 E2 E2 | %8
w: In- gre- di- en- te|Do- mi- no in|san- ctam ci- vi-|ta- tem|He- brae- o- rum|pu- e- ri|re- sur- re- cti- o- nem|vi- tae pro-|
 G2 G2 ^F4 | G6 G2 | G2 GG E2 EE | E2 EE E2 E2 | G2 G2 A4 | !fermata!G8 |] %14
w: nun- ti- an-|tes cum|ra- mis pal- ma- rum. Ho-|san- na cla- ma- bant|in ex- cel-|sis.|
V:3
 G2 GG G2 G2 | G3 G G2 G2 | G2 c2 A2 G2 | G4 G4 | G3 G G2 G2 | G3 G G4 | GGcc A2 G2 | G4 G2 G2 | %8
w: In- gre- di- en- te|Do- mi- no in|san- ctam ci- vi-|ta- tem|He- brae- o- rum|pu- e- ri|re- sur- re- cti- o- nem|vi- tae pro-|
 G2 c2 (A3 d) | d6 B2 | B2 BB c2 cc | ^G2 GG A2 A2 | B2 c2 c4 | !fermata!c8 |] %14
w: nun- ti- an\- *|tes cum|ra- mis pal- ma- rum. Ho-|san- na cla- ma- bant|in ex- cel-|sis.|
V:4
 C,2 C,C, C,2 C,2 | B,,3 B,, B,,2 B,,2 | C,2 C,2 C,2 C,2 | C,4 C,4 | C,3 C, C,2 C,2 | %5
w: In- gre- di- en- te|Do- mi- no in|san- ctam ci- vi-|ta- tem|He- brae- o- rum|
 B,,3 B,, B,,4 | C,C,C,C, C,2 C,2 | C,4 C,2 C,2 | B,,2 C,2 D,4 | G,6 G,2 | G,2 G,G, A,2 A,A, | %11
w: pu- e- ri|re- sur- re- cti- o- nem|vi- tae pro-|nun- ti- an-|tes cum|ra- mis pal- ma- rum. Ho-|
 E,2 E,E, A,,2 A,,2 | G,,2 C,2 F,,4 | !fermata!C,8 |] %14
w: san- na cla- ma- bant|in ex- cel-|sis.|

